X:644
T:Rumba
R:Rumba
C:Tradicional
S:Msica Tradicional Asturiana, (C) Tello & Tito. Asturies, 2001.
S:http://pagina.de/MusTradAst <telloytito@asturies.org>
N:Meloda vocal adaptada a rumba
A:Asturies
Z:Danzas y Bailes I
M:2/4
L:1/8
Q:1/4=100
K:Am
E/ A ^G|B/AE/ A^G|B/Ac/ cd|c/BA/ cB|A4-|
|A>A AA|A/GB/ BG|F/EA/ AF|E/DG/ GF|E4|
